X:2582
T:Highland Fling
O:england
N:Scots-L, 6/99
D:Peter Wyper 78rpm (Columbia Double Face D202)
M:4/4
L:1/8
K:D
F|D2 F<D G<E A2|D/D/D F<D G2 E<=C|D2 F<D G<E A2|\
(3GFE d>B A2 G<E:|
d>B (3cBA B<^G A2|d>B (3cBA B<^G A2|d>B (3cBA B<^G A<F|\
G<ED>B A2 G<E:|


